X:19
T: El kéne indulni, meg ké' házasodni
O: Gyergyószentmiklós (Csík), ?, 1910
Q: "Allegretto"
M:2/4
L:1/4
K:F
d/g/g/d/ | d c | 
d/d/d/c/ | B G | 
d/g/g/d/ | d c | 
d/d/d/c/ | B G | 
d/d/ d | B/B/B | 
G/c/B/A/ | G G | 

